X: 1
T:SEAN SOUTH OF GARRY OWEN  "REPEAT TOP LINE ONCE TO END TUNE"
M:C
L:1/8
Q:80
C:TRAD.
S:MARCH
K:HP
{Gdc}d3/2e/2|
{g}f2ef{AGAG}A2{Gdc}d3/2e/2|
{g}f3e{Gdc}d3A|  !
{g}B2d2{gdG}d3e|
{Gdc}d3{gdG}d|
{g}f3/2g/2|  !
a2{GdG}a2{g}a2fa|
B4{GdG}B/2{G}A3/2{g}f3/2e/2|
{Gdc}d2B2{gf}g2f2|  !
{gef}e3{A}e:|
